static/icons/basic/adaptive.svg

<svg width="32" height="32" viewBox="0 0 32 32" fill="none" xmlns="http://www.w3.org/2000/svg">
<path d="M13.9993 2.67048C13.0993 2.68267 12.5589 2.73478 12.122 2.9574C11.6203 3.21306 11.2123 3.62101 10.9567 4.12277C10.7341 4.55968 10.6819 5.10001 10.6697 6.00008M25.9993 2.67048C26.8994 2.68267 27.4398 2.73478 27.8767 2.9574C28.3784 3.21306 28.7864 3.62101 29.042 4.12277C29.2646 4.55968 29.3168 5.10001 29.329 6.00007M29.329 18.0001C29.3168 18.9001 29.2647 19.4405 29.042 19.8774C28.7864 20.3792 28.3784 20.7871 27.8767 21.0428C27.4398 21.2654 26.8994 21.3175 25.9993 21.3297M29.3327 10.6667V13.3334M18.6661 2.66675H21.3326M6.93268 29.3334H17.066C18.5595 29.3334 19.3062 29.3334 19.8767 29.0428C20.3784 28.7871 20.7864 28.3792 21.042 27.8774C21.3327 27.307 21.3327 26.5602 21.3327 25.0667V14.9334C21.3327 13.4399 21.3327 12.6932 21.042 12.1228C20.7864 11.621 20.3784 11.2131 19.8767 10.9574C19.3062 10.6667 18.5595 10.6667 17.066 10.6667H6.93268C5.43921 10.6667 4.69247 10.6667 4.12204 10.9574C3.62028 11.2131 3.21233 11.621 2.95666 12.1228C2.66602 12.6932 2.66602 13.4399 2.66602 14.9334V25.0667C2.66602 26.5602 2.66602 27.307 2.95666 27.8774C3.21233 28.3792 3.62028 28.7871 4.12204 29.0428C4.69247 29.3334 5.43921 29.3334 6.93268 29.3334Z" stroke="#121315" stroke-width="2.66667" stroke-linecap="round" stroke-linejoin="round"/>
</svg>

<svg xmlns="http://www.w3.org/2000/svg" width="32" height="32" fill="none"><path stroke="#121315" stroke-linecap="round" stroke-linejoin="round" stroke-width="2.667" d="M14 2.67c-.9.013-1.441.065-1.878.287-.502.256-.91.664-1.165 1.166-.223.437-.275.977-.287 1.877M26 2.67c.9.013 1.44.065 1.877.287.501.256.91.664 1.165 1.166.223.437.275.977.287 1.877m0 12c-.012.9-.064 1.44-.287 1.877-.256.502-.664.91-1.165 1.166-.437.222-.978.274-1.878.287m3.334-10.663v2.666M18.666 2.667h2.667m-14.4 26.666h10.133c1.494 0 2.24 0 2.81-.29.502-.256.91-.664 1.166-1.166.29-.57.29-1.317.29-2.81V14.933c0-1.493 0-2.24-.29-2.81a2.667 2.667 0 0 0-1.165-1.166c-.57-.29-1.317-.29-2.811-.29H6.933c-1.494 0-2.24 0-2.811.29-.502.256-.91.664-1.165 1.166-.291.57-.291 1.317-.291 2.81v10.134c0 1.493 0 2.24.29 2.81.256.502.664.91 1.166 1.166.57.29 1.317.29 2.81.29"/></svg>
